X: 946
T: Swallowtail Jig, The
B: jims roots
B: ralph
B: nick
M:6/8
L:1/8
Q: 3/8=100
K:Em
V:1 
%Z: Bryce
%S: <a href="http://thesession.org/tunes/106#setting21780" rel="nofollow">http://thesession.org/tunes/106#setting21780</a>
%R: jig
E/F/|:"Em"GEE BEE|GEE BAG|"D"FDD ADD|dcd AGF|
"Em"GEE BEE|GEE B2B/c/|"D"dcd AGF|[1"Em"GEE E2E/F/:|[2"Em"GEE E2B|]
|:"Em"Bcd e2f|e2f edc|Bcd e2f|"Em"edc "D"d2c|
"Em"Bcd e2f|e2f edc|"D"dcd AGF|[1"Em"GEE E2B:|[2"Em"GEE E3|]
% abcbook-tune_id 6298c2976e69156851d5d448


% abcbook-boost 0
% abcbook-tablature 
% abcbook-transpose 
% abcbook-lastupdated 1665491589851
% abcbook-soundfonts 
% abcbook-repeats 1


